X: 1
T: the Devonshire Lancers
R: jig
S: http://www.scottishfiddlers.com/Sydney/Music/PDFs/National%20Set%2009.pdf
Z: 2008 John Chambers <jc:trillian.mit.edu>
M: 6/8
L: 1/8
K: D
|: "D"DFA "G"BAB | "A7"cBc  "D"d3  |   "D"ABA "G"GAG | "D"FGF "A7"E3 \
|  "D"DFA "G"B3  | "A7"cBc "Bm"d2f |"E(m)"edB "D"BAF |"A7"AFE  "D"D3 :|
|:"A7"ABA "D"f3  | "A7"efe  "D"d3  |  "A7"ABA "D"f2f | "D"g2f "A7"e3 \
| "A7"ABA "D"f3  | "A7"efe  "D"d2f |"E(m)"edB "D"BAF |"A7"AFE  "D"D3 :|
